assets/images/aws.svg

<?xml version="1.0" encoding="UTF-8"?>
<!DOCTYPE svg  PUBLIC '-//W3C//DTD SVG 1.1//EN'  'http://www.w3.org/Graphics/SVG/1.1/DTD/svg11.dtd'>
<svg clip-rule="evenodd" fill-rule="evenodd" stroke-linejoin="round" stroke-miterlimit="2" version="1.1" viewBox="0 0 100 100" xml:space="preserve" xmlns="http://www.w3.org/2000/svg">
    <g transform="matrix(1.5357 0 0 1.5357 .5 .34489)">
        <path d="m31.26 62.776-14.27-5.12v-20.91l14.27 4.86v21.17zm2.6 0 14.27-5.12v-20.91l-14.27 4.864v21.166zm-15.4-27.6 14.4-4.066 13.392 4.32-13.392 4.546-14.4-4.8zm-4.184-1.6-14.276-5.136v-20.94l14.27 4.86 6e-3 21.216zm2.614 0 14.27-5.12v-20.956l-14.274 4.884 4e-3 21.192zm-15.4-27.6 14.4-4.086 13.392 4.32-13.392 4.546-14.4-4.78zm46.104 27.6-14.27-5.12v-20.956l14.27 4.86v21.216zm2.6 0 14.27-5.12v-20.956l-14.27 4.86v21.216zm-15.4-27.6 14.4-4.066 13.392 4.32-13.392 4.546-14.4-4.8z"/>
    </g>
</svg>

<?xml version="1.0" encoding="UTF-8" standalone="no"?>
<!DOCTYPE svg PUBLIC "-//W3C//DTD SVG 1.1//EN" "http://www.w3.org/Graphics/SVG/1.1/DTD/svg11.dtd">
<svg width="100%" height="100%" viewBox="0 0 100 100" version="1.1" xmlns="http://www.w3.org/2000/svg" xmlns:xlink="http://www.w3.org/1999/xlink" xml:space="preserve" xmlns:serif="http://www.serif.com/" style="fill-rule:evenodd;clip-rule:evenodd;stroke-linejoin:round;stroke-miterlimit:2;">
    <g id="aws" transform="matrix(1.53574,0,0,1.53574,0.5,0.34489)">
        <path d="M31.26,62.776L16.99,57.656L16.99,36.746L31.26,41.606L31.26,62.776ZM33.86,62.776L48.13,57.656L48.13,36.746L33.86,41.61L33.86,62.776ZM18.46,35.176L32.86,31.11L46.252,35.43L32.86,39.976L18.46,35.176ZM14.276,33.576L0,28.44L0,7.5L14.27,12.36L14.276,33.576ZM16.89,33.576L31.16,28.456L31.16,7.5L16.886,12.384L16.89,33.576ZM1.49,5.976L15.89,1.89L29.282,6.21L15.89,10.756L1.49,5.976ZM47.594,33.576L33.324,28.456L33.324,7.5L47.594,12.36L47.594,33.576ZM50.194,33.576L64.464,28.456L64.464,7.5L50.194,12.36L50.194,33.576ZM34.794,5.976L49.194,1.91L62.586,6.23L49.194,10.776L34.794,5.976Z"/>
    </g>
</svg>
